assets/icons/librescoot-bluetooth-disconnected.svg

<svg xmlns="http://www.w3.org/2000/svg" width="144" height="144" fill="none" viewBox="0 0 144 144"><g clip-path="url(#a)"><path fill="#fff" d="M67.4999 129.901V82.8006l-29.1 29.1004-6.3-6.3 33.6-33.6004-33.6-33.6 6.3-6.3 29.1 29.1v-47.1h4.5l32.1001 32.1-25.8001 25.8 25.8001 25.8-32.1001 32.1004zm9-68.7004 15-15-15-14.7zm0 51.3004 15-14.7004-15-15z"/></g><defs><clipPath id="a"><path fill="#fff" d="M0 0h144v144H0z"/></clipPath></defs></svg>

<svg width="144" height="144" viewBox="0 0 144 144" fill="none" xmlns="http://www.w3.org/2000/svg">
    <g clip-path="url(#clip0_400_500)">
        <g>
            <path d="M67.4999 129.901V82.8006L38.3999 111.901L32.0999 105.601L65.6999 72.0006L32.0999 38.4006L38.3999 32.1006L67.4999 61.2006V14.1006H71.9999L104.1 46.2006L78.2999 72.0006L104.1 97.8006L71.9999 129.901H67.4999ZM76.4999 61.2006L91.4999 46.2006L76.4999 31.5006V61.2006ZM76.4999 112.501L91.4999 97.8006L76.4999 82.8006V112.501Z" fill="white"/>
        </g>
    </g>
    <defs>
        <clipPath id="clip0_400_500">
            <rect width="144" height="144" fill="white"/>
        </clipPath>
    </defs>
</svg>
